X:12
T:Mr. Garden Junior (of Troup's) Strathspey
C:Robert Petrie
S:Petrie's Second Collection of Strathspey Reels and Country Dances &c.
Z:Steve Wyrick <sjwyrick'at'gmail'dot'com>, 6/5/04
N:Petrie's Second Collection, page 4
L:1/8
M:C
R:Strathspey
K:F
C|F>Ac<A f>cA<c|d>fc<A AGGA  |F>Ac<A f>cA<c|d<fTc>B AFF:|
c|f<cf<a c<fA<f|F<Ff>a g<dd<e|f<cf<a c<fA<f|B<GTc>B AFFc|
  f<cf<a c<fA<f|F<Ff>a g<dd>e|f<ad<f c<fA<f|BGTc>B  AFF|]
